!!!OTL: Der Tannhaeuser Danuser war ein wundrige Knab,
!!!ARE: Europa, Mitteleuropa, Schweiz, Kt. Luzern, Escholzmatt, Entlebuch
!!!YOR: 1, S. 150
!!    1912 aufgezeichnet
!!!SCT: Q0015C
!!!YEM: Copyright 1995, estate of Helmut Schaffrath.
**kern
*ICvox
*Ivox
!! Mixed meters:  2/4; 3/4
*M3/4
*k[b-e-]
*B-:
{8f
=1
8.f
16g
8.g
16f
=2
8f
16b-
16b-
4.b-}
{8a
=3
*M2/4
8b-
8cc
12.dd
24dd
12ee-
=4
*M3/4
8dd
8cc
4b-
8r}
{8f
=5
*M2/4
8.f
16g
8g
16f
16f
=6
*M3/4
8.f
16b-
4.b-}
{8a
=7
8b-
8b-
8cc
8.dd
16dd
8ee-
=8
8dd
8cc
4b-
8r}
{8a
=9
8b-
8cc
4.dd
8cc
=10
8b-
16a
16a
4g
4r}
=11
{4.cc
16dd
16dd
16cc
16cc
8b-
=12
8a
8g
4f
8r}
{8a
=13
8b-
16cc
16cc
4.dd
8cc
=14
8b-
8a
4g
8r}
{8cc
=15
4.cc
16ff
16ff
16ee-
16ee-
8cc
=16
8b-
8a
4b-
8r}
==
!!!AGN: Ballade,  Wallfahrt, religioes
!! Eine weitere Variante (S.161), die sich von diesem Lied nur durch die
!!    (angeblich) falsche Takteinteilung unterscheidet, wurde nicht kodiert.
!!    In der zweiten Zeile Triole eingefÅhrt (in der Notation = Dreiergruppe).
!!!ONB: ESAC (Essen Associative Code) Database: BALLADE
!!!AMT: irregular
!!!AIN: vox
!!!EED: Helmut Schaffrath
!!!EEV: 1.0
*-
